X: 1
T:Grandpa's
S:via PR
M:4/4
L:1/4
K:D
A/2G/2|"D"FA "A7"Bc|"D"d/2c/2d/2e/2 fa|"Em"gf "E7"ed|"A7"cB AG|
"D"FA "A7"Bc|"D"d/2c/2d/2e/2 fa|"Em"gf "A7"eB/2c/2|"D"d3::
"A"e/2c/2A e/2c/2A|"G"gf "A"e/2c/2A|"G"gf "E7"ed|"A7"cB AG|"D"FA "A7"Bc|\
"D"d/2c/2d/2e/2 fa|"Em"gf "A7"eB/2c/2|"D"d3:|
